X:1
T:Hor pur d'or
T:Hor pur d'or
T:Gio.Girolamo Kapsperger
C:Gio.Girolamo Kapsperger
%%score [ 1 2 ] { 3 | 4 }
L:1/8
Q:1/4=120
M:4/4
K:F
V:1 treble nm="Soprano 1" snm="S 1"
V:2 treble nm="Soprano 2" snm="S 2"
V:3 treble nm="BC" snm="BC"
V:4 bass 
V:1
 z4 B2 c2 |: d2 cB AG AB | G2 G2 A2 B2 | c2 BA GF GA | F2 F2 B2 cd | _ed cB c3 d |1 B2 B2 B2 c2 :|2 %7
w: Hor pur|d'or il _ crin _ an- *|ch'i- o pur le|ci- gl'ho _ lu- * mi- *|no- se vi- va _|ne- * v'e _ fre- sche|ro- se, hor pur|
w: Non e|cor ch'a _ mio _ ta- *|len- to, non fe-|ri- sca'e _ non _ an- *|ci- da, sol ch'io _|par- * h'e _ sol ch'io|ri- da, non e|
w: Ma' che|pro' s'el _ mon- * do'am _|mi- ra, lo splen-|dor di _ mia _ bel- *|lez- za, se mi _|sde- gna' _ hi se mi|sprez- za, ma che|
w: Las- sa|me quan- * d'au- * ra _|pa- ce, que- sto|cor ch'al- * tro _ non _|chie- de quan- d'A- *|mor _ con _ tan- ta|fe- de, las- sa|
 B2 B2 B2 cd |: _ed cB A3 =B | G2 G2 B2 cd | _e2 e2 d3 d | c2 c2 _e2 fe | d2 d4 dc | B2 B2 B2 cd | %14
w: ro- se, son le _|guan- * ci'el _ pet- to|mi- o, rid' A- *|mor sol col mio|ri- so, e le _|gra- tie'ho nel bel|vi- so, rid' A- *|
w: ri- da, re- co'al- *|trui _ dol- * ce- tor-|men- to, do- ve _|splen- de'il mio sem-|bian- te, rat- t'o- *|giun vol- ge le|pian- te, do- ve- _|
w: sprez- za, se per _|al- * tr'ar _ d'e so-|spi- ra, il mio _|be- ne'il mio te-|so- ro, per cui _|vi- vo'e- per cui|mo- ro, il mio _|
w: fe- de, fer- me- *|ra' _ quel _ pie fu-|ga- ce, sa- ra _|mai ch'i- gual' ar-|do- re, ar- da'un _|di den- tro'am- b'il|co- re, sa- ra _|
 _ef ed cB AG |1 A2 A2 B2 cd :|2 A2 A2 B2 cd || _ed cB AG AB | G4 G4 :| %19
w: mor _ sol _ col _ mio _|vi- so, rid' A- *|vi- so, e le _|gra- * tie _ nel _ bel _|vi- so|
w: splen- * de'il- * mio _ sem- *|bien- te, re- co- *|bien- te, rat- t'o _|giun _ vol- * ge _ le _|pian- te.|
w: be- _ ne'il _ mio _ te- *|so- ro, se per _|so- ra, per cui _|vi- * vo'e _ per _ cui _|mo- re.|
w: mai _ ch'i- * gual' _ ar- *|do- re, fer- me- *|do- re, ar- da'un _|di _ den- * tro'am- * bi _|co- re.|
V:2
 z4 G2 A2 |: B2 AG ^FE F2 | G2 G2 F2 G2 | A2 GF ED E2 | F2 F2 G2 AB | cB AG A3 A |1 B2 F2 G2 A2 :|2 %7
w: Hor pur|d'or il _ crin _ an-|ch'i- o, pur le|ci- gl'ho _ lu- * mi|no- se vi- va _|ne _ v'e _ fre- sche|ro- se, hor pur|
w: Non e|cor ch'a _ mio _ ta-|len- to, non fe-|ri- sca'e _ non _ an-|ci- da, sol ch'io _|par _ h'e _ sol ch'io|ri- da, non e|
w: M'a che|pro' s'el _ mio _ do'am-|mi- ra, lo splen-|dor di _ mia _ bel-|lez- za, se- mi _|sde gna'hi _ _ se mi|sprez- za, ma che|
w: Las- sa|me quan- * d'au- * ra|pa- ce, que- sto|cor ch'al _ tro _ non|chie- de, quan- d'A- *|mor _ con _ tan- ta|fe- de, las- sa|
 B2 F2 G2 AB |: cB AG G3 ^F | G2 G2 G2 AB | c2 c2 c3 =B | c2 G2 c2 dc | B2 B4 BA | B2 F2 G2 AB | %14
w: ro- se, son le _|guan- * ci'el _ pet- to|mi- o, rid' A- *|mor sol col mio|ri- so, e le _|gra- tie'ho nel bel|vi- so, rid' A- *|
w: ri- da, re- co'al _|trui _ dol- * ce tor-|men- to, do- ve _|splen- de'il mio sem-|bien- te, rat- t'o _|giun vol- ge le|pian- te, do- ve _|
w: sprez- za, se per _|al- * tr'ar _ d'e so-|spi- ra, il mio _|be- ne'il mio te-|so- ro, per cui _|vi- vo'e per cui|mo- ro, il mio _|
w: fe- de, fer- me- *|ra' _ quel _ prie fu-|ga- ce, se- ra _|mai ch'i- gual' ar-|do- re, ar- da'un _|di den- tro'am- bil|co- re, sa- ra _|
 cd cB AG ^FE |1 ^F2 F2 G2 AB :|2 ^F2 F2 G2 AB || cB AG ^FE F2 | G4 G4 :| %19
w: mor _ sol _ col _ mio _|vi- so, rid' A- *|vi- so, e le _|gra- * tie _ nel _ bel|vi- so.|
w: splen- * de'il _ mio _ sem _|bien- te, re- co- *|bien- te, rat- t'o _|giun _ vol- * ge _ le-|pian- te.|
w: be- * ne'il _ mio _ te- *|so- ro, se per _|so- ra, per cui _|vi- * vo _ per _ cui|mo- ro.|
w: mai _ ch'i- * gual' _ ar- *|do- re, fer- me- *|do- re, ar- da'un _|di _ den- * tro'am- * bi|co- re.|
V:3
 z4 [GB]2 [Ac]2 |: [Bd]2 [Fd]2 [Ec]2 [^FA]2 | [DG=B]4 [FA]2 [GB]2 | [Ec]2 [FA]2 [DB]2 [EG]2 | %4
 [FAc]4 [GB]2 [Ac][Bd] | [G_e]2 [FA]2 [Gc]2 [Ac]2 |1 [DFB]4 [GB]2 [Ac]2 :|2 [DFB]4 [GB]2 [FA]2 |: %8
 [_EG]2 [DB]2 [Gc]2 [^FA]2 | [DG=B]4 [G_B]2 [FA]2 | [_EGc]4 [Ac]2 =B2 | [Gc_e]6 [Ac]2 | %12
 [DFB]4 [GB]2 [Ac]2 | [DFB]4 [GB]2 [Ac]2 | [G_e]2 [Fd]2 [GB]2 [_EG]2 |1 [D^FA]4 [GB]2 [=FA]2 :|2 %16
 [^FAd]4 [DB]2 [Ac]2 || [Gc]2 [DB]2 [Gc]2 [^FA]2 | [DG=B]8 :| %19
V:4
 z4 G,F, _E,2 |: D,2 B,,2 C,2 D,2 | G,,4 D,2 C,B,, | A,,2 D,2 B,,2 C,2 | F,,4 _E,2 D,2 | %5
 C,2 D,2 _E,2 F,2 |1 B,,4 G,F, _E,2 :|2 B,,4 _E,2 D,2 |: C,2 G,,2 C,2 D,2 | G,,4 _E,2 D,2 | %10
 C,2 _E,2 F,2 G,2 | C,4 C,2 F,2 | B,,2 D,2 _E,2 F,2 | B,,4 _E,2 C,2 | C,2 D,2 _E,2 C,2 |1 %15
 D,4 _E,2 D,2 :|2 D,4 G,2 F,2 || _E,2 B,,2 C,2 D,2 | G,,4 G,,4 :| %19

